src/assets/filled/ArrowSquareRight.svg

<?xml version="1.0" encoding="UTF-8"?>
<svg width="24" height="24" viewBox="0 0 24 24" xmlns="http://www.w3.org/2000/svg">
 <path d="m16.19 2h-8.38c-3.64 0-5.81 2.17-5.81 5.81v8.37c0 3.65 2.17 5.82 5.81 5.82h8.37c3.64 0 5.81-2.17 5.81-5.81v-8.38c0.01-3.64-2.16-5.81-5.8-5.81zm-1.4 10.53-3.53 3.53c-0.15 0.15-0.34 0.22-0.53 0.22s-0.38-0.07-0.53-0.22c-0.29-0.29-0.29-0.77 0-1.06l3-3-3-3c-0.29-0.29-0.29-0.77 0-1.06s0.77-0.29 1.06 0l3.53 3.53c0.3 0.29 0.3 0.77 0 1.06z"/>
</svg>

<svg width="24" height="24" viewBox="0 0 24 24"  xmlns="http://www.w3.org/2000/svg">
<path d="M16.19 2H7.81C4.17 2 2 4.17 2 7.81V16.18C2 19.83 4.17 22 7.81 22H16.18C19.82 22 21.99 19.83 21.99 16.19V7.81C22 4.17 19.83 2 16.19 2ZM14.79 12.53L11.26 16.06C11.11 16.21 10.92 16.28 10.73 16.28C10.54 16.28 10.35 16.21 10.2 16.06C9.91 15.77 9.91 15.29 10.2 15L13.2 12L10.2 9C9.91 8.71 9.91 8.23 10.2 7.94C10.49 7.65 10.97 7.65 11.26 7.94L14.79 11.47C15.09 11.76 15.09 12.24 14.79 12.53Z" />
</svg>
